X:295
T: Paddy Cronin's
S: "Johnny O'Leary of Sliabh Luachra" (#75)
Z: B.Black
L: 1/8
M: 12/8
Q: 350
R: slide
K: D
E2G FED E2F G2A|BEE GFE BEE GFE|
D z F FED E2F G2A|B2E GFE F/G/FE D3 :|
d3 c2d e2d cBA|B/c/BE GFE BEE GFE|
d2d c2d e2d cBA|B/c/BE GFE GFE D3 :|
